X:11
T: Jungknab auf Botschaft
N: D0012
O: Europa, Mitteleuropa, Lothringen, Weiler
N: Achttonskala ( dorisch mit Alteration ?)
N: Taktwiederholung; Inzipit entfernte Variante zum Lied
R: Kilt - Lied
M: 4/4
L: 1/8
K: E
 |  | EEE | B4c2=d2 | c2B2A4- | A2
A2B2B2 | e3fe2 | =d2c2B4 |
BAB2e2 | =d2c2B2 | =d2e2B4 |
d2c2B2 | A4B2 | =G2F2E2- | E3
EEE | B4A2 | B2=c2B2=G2 | F2E2z

@@@ Tune index: 2533
